theme/essential/pix_core/t/show.svg

<!DOCTYPE svg PUBLIC "-//W3C//DTD SVG 1.1//EN" "http://www.w3.org/Graphics/SVG/1.1/DTD/svg11.dtd" [
	<!ENTITY ns_flows "http://ns.adobe.com/Flows/1.0/">
]><svg xmlns="http://www.w3.org/2000/svg" width="12" height="12" viewBox="0 0 12 12" preserveAspectRatio="xMinYMid meet" overflow="visible"><path d="M11.5 4.7c.3.5.5.9.5 1.3 0 1.6-2.8 4.2-6 4.2l5.5-5.5zm.5-4.7v2.8l-9.2 9.2h-2.8l2.7-2.7c-1.6-.9-2.7-2.3-2.7-3.3 0-1.6 2.8-4.2 6-4.2 1.2 0 2.3.4 3.3.9l2.7-2.7zm-4.9 3.9c.2.1.4.3.5.5l.2-.2c-.2-.1-.5-.2-.7-.3zm-2 .4c-.4 0-.8.3-.8.8s.3.8.8.8.8-.3.8-.8-.4-.8-.8-.8zm-.9 3.5l.2-.2c-.5-.4-.7-1-.7-1.6 0-.9.5-1.7 1.3-2.1-1.6.4-2.8 1.6-3 2.1.2.4 1 1.3 2.2 1.8z" fill="#999"/></svg>

<?xml version="1.0" encoding="utf-8"?>
<!-- Generator: Adobe Illustrator 15.1.0, SVG Export Plug-In  -->
<!DOCTYPE svg PUBLIC "-//W3C//DTD SVG 1.1//EN" "http://www.w3.org/Graphics/SVG/1.1/DTD/svg11.dtd" [
	<!ENTITY ns_flows "http://ns.adobe.com/Flows/1.0/">
]>
<svg version="1.1"
	 xmlns="http://www.w3.org/2000/svg" xmlns:xlink="http://www.w3.org/1999/xlink" xmlns:a="http://ns.adobe.com/AdobeSVGViewerExtensions/3.0/"
	 x="0px" y="0px" width="12px" height="12px" viewBox="0 0 12 12" style="overflow:visible;enable-background:new 0 0 12 12;"
	 xml:space="preserve" preserveAspectRatio="xMinYMid meet">
<defs>
</defs>
<path style="fill:#29a1c4;" d="M11.5,4.7C11.8,5.2,12,5.6,12,6c0,1.6-2.8,4.2-6,4.2L11.5,4.7z M12,0v2.8L2.8,12H0l2.7-2.7
	C1.1,8.4,0,7,0,6c0-1.6,2.8-4.2,6-4.2c1.2,0,2.3,0.4,3.3,0.9L12,0z M7.1,3.9C7.3,4,7.5,4.2,7.6,4.4l0.2-0.2C7.6,4.1,7.3,4,7.1,3.9z
	 M5.1,4.3c-0.4,0-0.8,0.3-0.8,0.8s0.3,0.8,0.8,0.8s0.8-0.3,0.8-0.8S5.5,4.3,5.1,4.3z M4.2,7.8l0.2-0.2C3.9,7.2,3.7,6.6,3.7,6
	c0-0.9,0.5-1.7,1.3-2.1C3.4,4.3,2.2,5.5,2,6C2.2,6.4,3,7.3,4.2,7.8z"/>
</svg>
